svgs/light/arrows-rotate.svg

<svg xmlns="http://www.w3.org/2000/svg" viewBox="0 0 512 512"><!-- Font Awesome Pro 6.0.0-alpha2 by @fontawesome - https://fontawesome.com License - https://fontawesome.com/license (Commercial License) --><path d="M464 32C455.156 32 448 39.156 448 48V177.305C416.162 99.719 340.561 48 256 48C154 48 67.734 120.906 50.875 221.344C49.422 230.062 55.297 238.312 64.016 239.781C64.906 239.938 65.797 240 66.672 240C74.344 240 81.125 234.469 82.438 226.656C96.688 141.688 169.688 80 256 80C328.494 80 393.33 124.879 419.623 192H304C295.156 192 288 199.156 288 208S295.156 224 304 224H464C472.844 224 480 216.844 480 208V48C480 39.156 472.844 32 464 32ZM447.984 272.219C439.219 270.656 431.016 276.625 429.562 285.344C415.312 370.312 342.312 432 256 432C183.506 432 118.67 387.121 92.377 320H208C216.844 320 224 312.844 224 304S216.844 288 208 288H48C39.156 288 32 295.156 32 304V464C32 472.844 39.156 480 48 480S64 472.844 64 464V334.695C95.838 412.281 171.439 464 256 464C358 464 444.266 391.094 461.125 290.656C462.578 281.938 456.703 273.688 447.984 272.219Z"/></svg>

<svg xmlns="http://www.w3.org/2000/svg" viewBox="0 0 512 512"><!--! Font Awesome Pro 6.3.0 by @fontawesome - https://fontawesome.com License - https://fontawesome.com/license (Commercial License) Copyright 2023 Fonticons, Inc. --><path d="M464 32C455.2 32 448 39.16 448 48v129.3C416.2 99.72 340.6 48 256 48c-102 0-188.3 72.91-205.1 173.3C49.42 230.1 55.3 238.3 64.02 239.8C64.91 239.9 65.8 240 66.67 240c7.672 0 14.45-5.531 15.77-13.34C96.69 141.7 169.7 80 256 80c72.49 0 137.3 44.88 163.6 112H304C295.2 192 288 199.2 288 208S295.2 224 304 224h160C472.8 224 480 216.8 480 208v-160C480 39.16 472.8 32 464 32zM447.1 272.2c-8.766-1.562-16.97 4.406-18.42 13.12C415.3 370.3 342.3 432 255.1 432c-72.49 0-137.3-44.88-163.6-112H208C216.8 320 224 312.8 224 304S216.8 288 208 288h-160C39.16 288 32 295.2 32 304v160C32 472.8 39.16 480 48 480S64 472.8 64 464v-129.3C95.84 412.3 171.4 464 256 464c101.1 0 188.3-72.91 205.1-173.3C462.6 281.9 456.7 273.7 447.1 272.2z"/></svg>
